X:1
T:My true love hath my heart
T:My true love hath my heart
T:Copyright © CPDL
T:Copyright © CPDL
T:Copyright © CPDL
T:Copyright © CPDL
Z:Copyright © CPDL
%%score 1 { ( 2 3 ) ( 4 5 ) }
L:1/8
Q:1/4=80
M:4/4
K:F
V:1 treble nm="P1"
V:2 treble nm="P2"
V:3 treble 
V:4 bass nm="P3"
V:5 bass 
V:1
"^Editor: John Henry Fowler""^(  Revision:   4 - 28 - 2008  )""^Allegretto." z | %1
w: |
"^From \"English Lyrics\" -  Set 1 -  Number 1""^Words from poet Sir Philip Sidney.""^Dedicated to Parry's wife." z8 | %2
w: |
 z8 |"^Charles Hubert Hastings Parry""^( 1848 - 1918 )" z8 | z4 z2!p! z"^a tempo" G | cAFG A3 c | %6
w: ||My|true love hath my heart, And|
!<(! d2!<)! d2 f3 e | dc A2 FF/F/ BA | G2 F2 z2 z A | A2 A2 d3 d | cAEF A3!mf! A | %11
w: I have his, By|just ex- change one to the o- ther|giv- en: I|hold his dear, And|mine he can- not miss, There|
!>(! ec!>)!=BA"^sostenuto" ecBA | =B2 c2 z2 z!p! G | cAFG!<(! A3 c | d2 d2!<)! f4- | f2 z2 z4 | %16
w: nev- er was a bet- ter bar- gain|driv- en: My|true love hath my heart, and|I have his|_|
 z8 | z!mp! G A>G c3 A | G>A GD E2 z2 | G2!<(! AG c>c!<)! e2- | e!>(!dc=B!>)! c2 z2 | %21
w: |His heart in me keeps|him and me in one,|My heart in him his thoughts|_ and sen- ses guides:|
!p! z A !>!B>A d3 F |"^poco  sostenuto" F>E AE F3"^a tempo"!mf! A | %23
w: He loves my heart, for|once it was his own, I|
!<(! dA!<)! f2- fe"^poco rit."dA | c>_B B4 z!mp! G | c"^cresc."AFG A3 A |!<(! d2 d2!<)!!>(! f4- | %27
w: cher- ish his _ be- cause in|me it bides: My|true love hath my heart, and|I have his.|
 f2!>)! z2 z4 | z8 |] %29
w: _||
V:2
!<(! (C!<)! |!>(! [Ac]).[FA]!>)! [DF]2-!<(! [DF]([EG][FA]!<)![Ac] | %2
!>(! [df]).[Bd]!>)! !>![GB]2-!<(! [GB]!<(!([Ac][Bd]!<)![df]!<)! | %3
!<(! [Bdb]).[Gg]([Ee][Ff]!<)!!<(! [Gg][Aa][Bb]!<)![=B_a=b] | gf e2!<)!!<(!!>(! [dd']2)!>)! [EBe]2 | %5
 z (C [DF][EG]) ([FA]3 [Ac]) | z2 [Bd]2 [df]3 [ce] | [Bd][Ac] [FA]2 [A,F]2 [B,FB]2 | %8
 [B,EG]2!<(! [A,G]2 z2!<)! z [^CGA] | [FA]2 A2 d3 =B | [Ec]3 [DF] [CA]3 A | %11
 [EAe]2 z A [FAf]2 z [FA]- | ([FA]!>(![EG][DF][CE] D!>)!CDB,) | z C [DF][EG] [FA]3 [Ac] | %14
 [Bd]2 [Bd]2 [df]3 [ce] | ([Bd][Ac][FA])[DF] [CE][B,D][A,C][K:bass]z/[E,B,]/ | %16
 ([E,B,]2 [F,A,]2)"^a tempo" z2 z[K:treble] [CFA] | [=B,FG] z2 [B,DG-] ([CG]EC)(([CEA] | %18
 [=B,FG]2)) z [B,D] ([CG]EC)[CEc] | [=B,F=B]2 z [B,G-] [CGc]2 [Ge-]2 | edc=B cGE[D^G] | %21
 [^CA]3 ([CE] [DA]FD)[DFB] | [^CGA]2 z ([=CA-] [DA]FD)[CGA-] | %23
 [DFA]2 !>![FAf]2- [FAf][Ge][Fd][EA] | [Ac]>[G_B] [GB]4 z G | [CFc]2 [A,F][DG] A4- | %26
 AA dc =B !>![Afa][Geg]>[Fdf] | (fe[_Bd][Ac]) ([Ac][GB])"^a tempo" z!p! [B,EG] | %28
 (([B,EG]2 [A,F]2)) z4 |] %29
V:3
 x | x8 | x8 | x8 | [cc']3 [^c^c'] x4 | x8 | x8 | x8 | x8 | D2 FE D3 F | x8 | x8 | x8 | x8 | x8 | %15
 x7[K:bass] x | x7[K:treble] x | x8 | x8 | x4 x x c=B | A2 [DF]2 E2 x2 | x8 | x8 | x8 | %24
 D3 D CD E2 | z4 ^C[A,C][=B,D][CE] | [DF]2 [DF]2- [DF] x x2 | [Fc]2 x2 D2 x2 | x8 |] %29
V:4
!<(! C,!<)! |!>(!!<(! (F,,C,C!>)!B,!<)!!<(! A,G,F,!<)!E,) | %2
!>(! D,F,!>)! F"^cresc."E!<(! DCB,!<)!A, |!<(! G,B,DC!<)!!<(! B,A,G,!<)!F, | %4
"^poco rit." E,D,C,B,,- B,,A,,G,,C, | F,,C,CB, A,G,F,E, | D,F,!<(!DC!<)! B,!>(!F,[DF]!>)![CE] | %7
!>(! [B,D][A,C]!>)! [F,A,]2 [D,F,]2 [G,,G,]2 | C,2!<(! z C, A,!<)!G,F,[A,,E,] | D,,A,,A,G, F,D,DG | %10
 A,,E,A,F, E,A,,CA, |!mf! C,E,CA, D,A,FD, | (G,,G,C,G, _B,A,B,G,) |!p! A,,C,CB, A,G,F,!<(!E, | %14
 D,F,DB,!<)! F,"^dim.  e  rit."A,[DF][CE] | ([B,D][A,C][F,A,])[D,F,] [C,E,]3 z/ [C,,C,]/ | %16
 C,3!<(! C, (A,!<)!G,!>(!F,!>)!A,,) | (D,=B,,G,,)(F, E,3) (C, | D,=B,,G,,)(F, E,2) z (C, | %19
 D,=B,,G,,)(F,!<(! E,2)!<)! z E,, |!>(! F,,D,G,,!>)!G, C,G,C_B, | A,3 A,- A,3 x | x x x A,- A,3 x | %23
!<(! D,3!<)! A,"^poco rit." D3 D, | G,,D,G,F, E,C,CB, | %25
!p!"^cresc." A,2 D,B,, A,,[G,,G,][F,,F,][E,,E,] | %26
"^cresc." [D,,D,][C,,C,][=B,,,=B,,][A,,,A,,]"^sost." [G,,,G,,]2!f! E>D | C2"^dim." z F, G,2 z C, | %28
 [F,,C,]4 z4 |] %29
V:5
 x | F,,2 x2 x4 | F,,2 x2 x4 | F,2 x2 x4 | F,,2 x2 x4 | F,,2 x2 x4 | F,,2 x2 x4 | x8 | %8
 C,2 F,,2 x4 | D,,2 x2 x4 | A,,2 x2 x2 x2 | C,2 x2 D,3 D, | G,,2 C,2 x4 | A,,2 x2 x4 | F,,2 x2 x4 | %15
 x8 | F,,4 x4 | x8 | x8 | x8 | F,,2 G,,2 C,2 x2 | (A,E,A,,)G, F,3 (D, | E,^C,A,,)G, F,3 E, | x8 | %24
 G,,2 x2 x4 | x8 | x8 | [A,,F,]4 B,,2 x2 | x8 |] %29

